X: 1
T: Niels Mortensens Trekant [A/E]
S: Thomas Thomsen
R: jig
Z: 2006 John Chambers <jc:trillian.mit.edu>
F: http://www.folketshus.dk/cgi-bin/visnode.cgitr-nielsm3
F: http://spillefolk.dk/nodesamling/visnode.phpkey=tr-nielsm3
M: 6/8
L: 1/8
K: A
   E | "A"cBA EAc | efc e2a | "E7"gfe d'c'b | "A"ac'a e2 \
   E | "A"cBA EAc | efc e2a | "E7"gfe d'c'b | "A"a3 a2 |]
[| e | "E"ggg gfe | "B7"^def    B2B   |     aaa  agf | "E"gbg e2 \
   B | "E"ggg gfe | "A"cea "F#m"c'2c' | "B7"bc'b agf | "E"e3  e2 |]
[| e | "E7"e2d B2f | "A"e2c A2E/E/ | "E7"EGB dcB | "A"Aca e2 \
   f | "E7"e2d B2f | "A"e2c A2E/E/ | "E7"EGB dcB | "A"A3  az :|
